X: 1
T: John Brady's Jig
M: 6/8
L: 1/8
C: John Brady
D: Paddy O'Brien, "Stranger at the Gate"
R: Jig
A: Co. Offaly
N: Brady's a flute player
Z: Jeff Myers <jmyers:post.goucher.EDU>
K: EDor
|  E2 G Bed | (3Bcd B AFD | EFG Bed | BAG Eag | e2 d ege | f2 e dBA | G2 A Bed | BAG Bcd :|
|: E2 F ~G3 | AGA BAB | (3efe f gfe | fed Bcd | eBe gfe | fed BAF | DEF ~G3 | ~F3Bcd :|
